public/img/social/twit.svg

<svg width="21" height="18" viewBox="0 0 21 18" fill="none" xmlns="http://www.w3.org/2000/svg">
<path d="M20.8486 2.39998C20.0823 2.73601 19.2658 2.95896 18.4146 3.06722C19.2903 2.54445 19.9588 1.72267 20.2731 0.732273C19.4565 1.21922 18.5551 1.5629 17.5944 1.75487C16.8189 0.929065 15.7143 0.417969 14.5086 0.417969C12.17 0.417969 10.287 2.31627 10.287 4.64317C10.287 4.97799 10.3152 5.29994 10.3848 5.6066C6.8735 5.43516 3.76588 3.75217 1.67843 1.18823C1.31382 1.82047 1.10013 2.54445 1.10013 3.32357C1.10013 4.78643 1.85349 6.08349 2.97629 6.83404C2.29778 6.82116 1.63175 6.62396 1.06793 6.31368C1.06793 6.32656 1.06793 6.34347 1.06793 6.35997C1.06793 8.4128 2.532 10.1179 4.45243 10.5107C4.10875 10.6049 3.73368 10.65 3.34492 10.65C3.07449 10.65 2.80163 10.6347 2.54528 10.5779C3.0926 12.2509 4.6456 13.4807 6.49239 13.5205C5.05529 14.645 3.23023 15.3223 1.25506 15.3223C0.908566 15.3223 0.576554 15.307 0.244141 15.2643C2.11507 16.4704 4.33251 17.1594 6.72379 17.1594C14.4969 17.1594 18.7466 10.7204 18.7466 5.13897C18.7466 4.95224 18.7402 4.77194 18.7313 4.59286C19.5696 3.99806 20.2743 3.25516 20.8486 2.39998Z" fill="#7C808A"/>
</svg>

<svg width="21" height="18" fill="none" xmlns="http://www.w3.org/2000/svg"><path d="M20.849 2.4a8.815 8.815 0 0 1-2.434.667A4.201 4.201 0 0 0 20.273.732a8.442 8.442 0 0 1-2.679 1.023 4.223 4.223 0 0 0-7.307 2.888c0 .335.028.657.098.964-3.511-.172-6.62-1.855-8.707-4.419A4.252 4.252 0 0 0 1.1 3.324a4.23 4.23 0 0 0 1.876 3.51 4.172 4.172 0 0 1-1.908-.52v.046a4.244 4.244 0 0 0 3.384 4.15c-.343.095-.718.14-1.107.14-.27 0-.543-.015-.8-.072.548 1.673 2.1 2.903 3.947 2.943a8.486 8.486 0 0 1-5.237 1.801c-.346 0-.678-.015-1.01-.058a11.894 11.894 0 0 0 6.479 1.895c7.773 0 12.023-6.439 12.023-12.02 0-.187-.007-.367-.016-.546A8.423 8.423 0 0 0 20.85 2.4z" fill="#7C808A"/></svg>
